X:1
T:Mr. John Walker's (Contrabassist in the Castle Newe Band)
T:Mr. John Walker's (Contrabassist in the Castle Newe Band)
T:Alexander Walker
C:Alexander Walker
L:1/8
M:2/2
K:G
V:1 treble 
V:1
 g | BG G/G/G BGdG | cedg BAAc | BG G/GG BGdB | cedf gGG :| g | bgaf g2 dB | cedB cAAc | %8
 BGAF G2 DB, | CEDF GG,G,G | bgaf g2 dB | cedB cAAc | bgaf gdec | BGAF GG,G, || %14

